X:105
T:Jack in a Box. ThoH.105
Q:1/2=90
M:C|
L:1/8
B:Thompson's Compleat Collection of 120 Favourite Hornpipes.
Z:Village Music Project, Simon Wilson 2016
O:England.
K:G
G2A2|BdBG AcAF|G3DE2cE|F2dFG2ed|cBAG ABcA|
BGFG ABcA|BGFG Bd^ce|dbag fed^c|d4:|
|:d2e2|fafd ege^c|d3A Bdgf|ebag fed^c|d4d2((3de=f)|
edcB cBA^G|A4c2((3cde)|dcBA BAGF|G4((3GAB) DB|
((3ABc) Dc BGAF|G3A Bdge|fafd ege^c|d4G2A2|
BdBG AcAF|G3DE2cE|F2dFG2ed|cBAG ABcA|
BGFG ABcA|BGAF GBAc|Bedc BAGF|G4:|

